X:1
T:Title
%%score 1 2
L:1/8
Q:1/4=105
M:4/4
K:Ab
V:1 treble nm="Grand Piano, Unnamed-000"
V:2 bass nm="Choir Pad, Will the Circle Be"
V:1
 [A,C]>[B,D] [CE]2 [CE]4 | [CA]>[DB] [Ec]2 [Ec]4 | [Ec]>[EB] [FA]2- [FA][GB] [FA]2 | [DF]2 [CE]6 | %4
w: By~Charles~Hutchinson~Gabriel,~1906,~alt. * * *||||
 [A,C]>[B,D] [CE]2 [CE]4 | [EA]>[EB] [Ec]2 [Ec]4 | [EA]>[EA] [EB]2- [EB][EB] [=DB]2 | %7
w: |||
 [=Dc]2 [EB]6 | [CA]>[CB] [Ec]2 [Ee]4 | [Ec]>[DB] [CA]2 [Ec]4 | [EA]>[EG] [DF]2- [DF][GB] [FA]2 | %11
w: ||||
 [DF]2 [CE]6 | [CE]>[CE] [DF]2 [FA]4 | [EA]>[EB] [Ec]2 [Ec]4 | [Ec]>[Ed] [Ee]2 [Ff]4 | %15
w: ||||
 [Ec]>[EB] [CA]6- | [CA]2 z2 z4 |] %17
w: ||
V:2
 [A,,E,]>[A,,E,] [A,,A,]2 [A,,A,]4 | [A,,A,]>[A,,A,] A,2 A,4 | %2
 A,>[C,A,] [D,D]2- [D,D][D,D] [D,D]2 | [D,A,]2 [A,,A,]6 | [A,,E,]>[A,,E,] [A,,A,]2 [A,,A,]4 | %5
 [C,A,]>[E,G,] A,2 A,4 | [C,A,]>[C,A,] [E,G,]2- [E,G,][E,G,] [B,,A,]2 | [B,,A,]2 [E,G,]6 | %8
 A,>A, A,2 [A,C]4 | [A,,A,]>[A,,A,] [A,,A,]2 [A,,A,]4 | [C,A,]>[C,A,] [D,A,]4 [D,D]2 | %11
 [D,A,]2 [A,,A,]6 | [A,,A,]>[A,,A,] [D,A,]2 [D,D]4 | [C,A,]>[E,G,] A,2 A,4 | [E,A,]>[E,B,] [E,C]6 | %15
 [E,A,]>E, [A,,E,]6- | [A,,E,]2 z2 z4 |] %17

